X:1113
%%etbk:tnset id:101,pos:3,rep:3
%%etbk:site1 http://www.thesession.org/tunes/display/15
%%etbk:color #ffffcc
T: Calliope House
Z: Piano Box Version by Martin Fleischmann
H: Created 2013-02-19 /  Last Modified 2013-02-19
M: 6/8
L: 1/8
R: jig
K: Dmaj
|: "D"!5!a2a !3!f!5!aa | !2!e!5!aa !1!def | "G"!4!g!3!g!4!g !3!fgf | "A"!2!e3 {g}!2!e!1!d!2!B | 
"D"!1!ABA !1!A2!2!F | !1!A2!2!B !4!d2!2!e |1 !3!faf fed | "A"!2!e{g}ee efg:|2 !3!faf "A"!2!efe | "D"!1!d3 !4!d!1!AB ||
|: "D"!4!d!1!AA !3!f!1!AA | !2!e!1!AA !3!fe!1!d | "A"!2!B!5!ee !2!e2!1!d | !2!ef!1!d !2!B2A | 
"D"!1!ABA !1!A2!2!F | !1!A2!2!B !4!d2e |1 !3!faf fed | "A"!2!e{g}ee e!1!d!2!B :|2 !3!faf "A"!2!ede | "D"!1!d6 ||






